; generated by Slic3r 1.2.9 on 2021-03-15 at 16:16:43

; external perimeters extrusion width = 0.50mm
; perimeters extrusion width = 0.72mm
; infill extrusion width = 0.72mm
; solid infill extrusion width = 0.72mm
; top infill extrusion width = 0.72mm

M107
M104 S200 ; set temperature
G28 ; home all axes
G1 Z5 F5000 ; lift nozzle

M109 S200 ; wait for temperature to be reached
G21 ; set units to millimeters
G90 ; use absolute coordinates
M82 ; use absolute distances for extrusion
G92 E0
G1 Z0.350 F7800.000
G1 E-2.00000 F2400.00000
G92 E0
G1 X84.915 Y85.753 F7800.000
G1 E2.00000 F2400.00000
G1 X86.668 Y84.274 E2.07096 F1800.000
G1 X88.820 Y83.481 E2.14192
G1 X90.000 Y83.375 E2.17858
G1 X110.000 Y83.375 E2.79740
G1 X112.259 Y83.772 E2.86836
G1 X114.247 Y84.915 E2.93933 F1800.000
G1 X115.726 Y86.668 E3.01029
G1 X116.519 Y88.820 E3.08125
G1 X116.625 Y90.000 E3.11790
G1 X116.625 Y110.000 E3.73673
G1 X116.228 Y112.259 E3.80769
G1 X115.085 Y114.247 E3.87865
G1 X113.332 Y115.726 E3.94962
G1 X111.180 Y116.519 E4.02058
G1 X110.000 Y116.625 E4.05723
G1 X90.000 Y116.625 E4.67606
G1 X87.741 Y116.228 E4.74702
G1 X85.753 Y115.085 E4.81798
G1 X84.274 Y113.332 E4.88894
G1 X83.481 Y111.180 E4.95990
G1 X83.375 Y110.000 E4.99656
G1 X83.375 Y90.000 E5.61538
G1 X83.772 Y87.741 E5.68634
G1 X84.878 Y85.818 E5.75499
G1 E3.75499 F2400.00000
G92 E0
G1 X108.400 Y108.400 F7800.000
G1 E2.00000 F2400.00000
G1 X91.600 Y108.400 E2.51983 F1800.000
G1 X91.600 Y91.600 E3.03966
G1 X108.400 Y91.600 E3.55948
G1 X108.400 Y108.325 E4.07699
G1 X109.025 Y109.025 F7800.000
G1 X90.975 Y109.025 E4.63549 F1800.000
G1 X90.975 Y90.975 E5.19399
G1 X109.025 Y90.975 E5.75248
G1 X109.025 Y108.950 E6.30866
G1 X109.650 Y109.650 F7800.000
G1 X90.350 Y109.650 E6.90583 F1800.000
G1 X90.350 Y90.350 E7.50300
G1 X109.650 Y90.350 E8.10016
G1 X109.650 Y109.575 E8.69501
G1 X109.217 Y109.400 F7800.000
G1 X108.022 Y92.283 F7800.000
G1 X107.717 Y91.978 E8.70860 F1800.000
G1 X106.817 Y91.978 E8.73691
G1 X108.022 Y93.183 E8.79055
G1 X108.022 Y94.082 E8.81887
G1 X105.918 Y91.978 E8.91255
G1 X105.019 Y91.978 E8.94086
G1 X108.022 Y94.981 E9.07459
G1 X108.022 Y95.881 E9.10291
G1 X104.119 Y91.978 E9.27668
G1 X103.220 Y91.978 E9.30500
G1 X108.022 Y96.780 E9.51882
G1 X108.022 Y97.679 E9.54714
G1 X102.321 Y91.978 E9.80101
G1 X101.421 Y91.978 E9.82932
G1 X108.022 Y98.579 E10.12324
G1 X108.022 Y99.478 E10.15156
G1 X100.522 Y91.978 E10.48552
G1 X99.623 Y91.978 E10.51384
G1 X108.022 Y100.377 E10.88784
G1 X108.022 Y101.277 E10.91616
G1 X98.723 Y91.978 E11.33022
G1 X97.824 Y91.978 E11.35854
G1 X108.022 Y102.176 E11.81264
G1 X108.022 Y103.075 E11.84096
G1 X96.925 Y91.978 E12.33510
G1 X96.025 Y91.978 E12.36342
G1 X108.022 Y103.975 E12.89762
G1 X108.022 Y104.874 E12.92594
G1 X95.126 Y91.978 E13.50018
G1 X94.227 Y91.978 E13.52850
G1 X108.022 Y105.773 E14.14279
G1 X108.022 Y106.673 E14.17110
G1 X93.327 Y91.978 E14.82544
G1 X92.428 Y91.978 E14.85376
G1 X108.022 Y107.572 E15.54814
G1 X107.572 Y108.022 E15.56817
G1 X91.978 Y92.428 E16.26255
G1 X91.978 Y93.327 E16.29087
G1 X106.673 Y108.022 E16.94520
G1 X105.773 Y108.022 E16.97352
G1 X91.978 Y94.227 E17.58781
G1 X91.978 Y95.126 E17.61613
G1 X104.874 Y108.022 E18.19037
G1 X103.975 Y108.022 E18.21869
G1 X91.978 Y96.025 E18.75288
G1 X91.978 Y96.925 E18.78120
G1 X103.075 Y108.022 E19.27535
G1 X102.176 Y108.022 E19.30366
G1 X91.978 Y97.824 E19.75777
G1 X91.978 Y98.723 E19.78608
G1 X101.277 Y108.022 E20.20014
G1 X100.377 Y108.022 E20.22846
G1 X91.978 Y99.623 E20.60246
G1 X91.978 Y100.522 E20.63078
G1 X99.478 Y108.022 E20.96474
G1 X98.579 Y108.022 E20.99306
G1 X91.978 Y101.421 E21.28697
G1 X91.978 Y102.321 E21.31529
G1 X97.679 Y108.022 E21.56916
G1 X96.780 Y108.022 E21.59748
G1 X91.978 Y103.220 E21.81130
G1 X91.978 Y104.119 E21.83961
G1 X95.881 Y108.022 E22.01339
G1 X94.981 Y108.022 E22.04171
G1 X91.978 Y105.019 E22.17543
G1 X91.978 Y105.918 E22.20375
G1 X94.082 Y108.022 E22.29743
G1 X93.183 Y108.022 E22.32575
G1 X91.978 Y106.817 E22.37938
G1 X91.978 Y107.717 E22.40770
G1 X92.283 Y108.022 E22.42128
G1 Z0.650 F7800.000
G1 X108.550 Y108.550 F7800.000
G1 X91.450 Y108.550 E22.89631 F3600.000
G1 X91.450 Y91.450 E23.37133
G1 X108.550 Y91.450 E23.84636
G1 X108.550 Y108.475 E24.31930
G1 X109.205 Y109.205 F7800.000
G1 X90.795 Y109.205 E24.83068 F3600.000
G1 X90.795 Y90.795 E25.34207
G1 X109.205 Y90.795 E25.85346
G1 X109.205 Y109.130 E26.36276
G1 X109.750 Y109.750 F7800.000
G1 X90.250 Y109.750 E26.72328 F1800.000
G1 X90.250 Y90.250 E27.08380
G1 X109.750 Y90.250 E27.44432
G1 X109.750 Y109.675 E27.80346
G1 X109.317 Y109.500 F7800.000
G1 X107.835 Y108.153 F7800.000
G1 X108.153 Y107.835 E27.81614 F1200.000
G1 X108.153 Y106.895 E27.84268
G1 X106.895 Y108.153 E27.89290
G1 X105.954 Y108.153 E27.91945
G1 X108.153 Y105.954 E28.00721
G1 X108.153 Y105.014 E28.03375
G1 X105.014 Y108.153 E28.15905
G1 X104.073 Y108.153 E28.18560
G1 X108.153 Y104.073 E28.34844
G1 X108.153 Y103.133 E28.37498
G1 X103.133 Y108.153 E28.57536
G1 X102.192 Y108.153 E28.60191
G1 X108.153 Y102.192 E28.83983
G1 X108.153 Y101.252 E28.86637
G1 X101.252 Y108.153 E29.14183
G1 X100.311 Y108.153 E29.16838
G1 X108.153 Y100.311 E29.48138
G1 X108.153 Y99.371 E29.50793
G1 X99.371 Y108.153 E29.85847
G1 X98.430 Y108.153 E29.88501
G1 X108.153 Y98.430 E30.27309
G1 X108.153 Y97.490 E30.29964
G1 X97.490 Y108.153 E30.72526
G1 X96.549 Y108.153 E30.75180
G1 X108.153 Y96.549 E31.21496
G1 X108.153 Y95.609 E31.24151
G1 X95.609 Y108.153 E31.74221
G1 X94.668 Y108.153 E31.76876
G1 X108.153 Y94.668 E32.30700
G1 X108.153 Y93.728 E32.33354
G1 X93.728 Y108.153 E32.90932
G1 X92.787 Y108.153 E32.93587
G1 X108.153 Y92.787 E33.54919
G1 X108.133 Y91.867 E33.57518
G1 X91.867 Y108.133 E34.22444
G1 X91.847 Y107.212 E34.25043
G1 X107.212 Y91.847 E34.86375
G1 X106.272 Y91.847 E34.89029
G1 X91.847 Y106.272 E35.46607
G1 X91.847 Y105.332 E35.49262
G1 X105.332 Y91.847 E36.03086
G1 X104.391 Y91.847 E36.05740
G1 X91.847 Y104.391 E36.55810
G1 X91.847 Y103.451 E36.58465
G1 X103.451 Y91.847 E37.04781
G1 X102.510 Y91.847 E37.07435
G1 X91.847 Y102.510 E37.49997
G1 X91.847 Y101.570 E37.52652
G1 X101.570 Y91.847 E37.91460
G1 X100.629 Y91.847 E37.94114
G1 X91.847 Y100.629 E38.29168
G1 X91.847 Y99.689 E38.31823
G1 X99.689 Y91.847 E38.63123
G1 X98.748 Y91.847 E38.65777
G1 X91.847 Y98.748 E38.93323
G1 X91.847 Y97.808 E38.95978
G1 X97.808 Y91.847 E39.19770
G1 X96.867 Y91.847 E39.22424
G1 X91.847 Y96.867 E39.42462
G1 X91.847 Y95.927 E39.45117
G1 X95.927 Y91.847 E39.61401
G1 X94.986 Y91.847 E39.64055
G1 X91.847 Y94.986 E39.76585
G1 X91.847 Y94.046 E39.79240
G1 X94.046 Y91.847 E39.88016
G1 X93.105 Y91.847 E39.90670
G1 X91.847 Y93.105 E39.95692
G1 X91.847 Y92.165 E39.98347
G1 X92.165 Y91.847 E39.99615
G1 Z0.950 F7800.000
G1 X108.550 Y108.550 F7800.000
G1 X91.450 Y108.550 E40.47117 F3600.000
G1 X91.450 Y91.450 E40.94619
G1 X108.550 Y91.450 E41.42122
G1 X108.550 Y108.475 E41.89416
G1 X109.205 Y109.205 F7800.000
G1 X90.795 Y109.205 E42.40555 F3600.000
G1 X90.795 Y90.795 E42.91693
G1 X109.205 Y90.795 E43.42832
G1 X109.205 Y109.130 E43.93762
G1 X109.750 Y109.750 F7800.000
G1 X90.250 Y109.750 E44.29814 F1800.000
G1 X90.250 Y90.250 E44.65866
G1 X109.750 Y90.250 E45.01918
G1 X109.750 Y109.675 E45.37832
G1 X109.317 Y109.500 F7800.000
G1 X108.153 Y92.165 F7800.000
G1 X107.835 Y91.847 E45.39100 F1200.000
G1 X106.895 Y91.847 E45.41754
G1 X108.153 Y93.105 E45.46776
G1 X108.153 Y94.046 E45.49431
G1 X105.954 Y91.847 E45.58207
G1 X105.014 Y91.847 E45.60861
G1 X108.153 Y94.986 E45.73391
G1 X108.153 Y95.927 E45.76046
G1 X104.073 Y91.847 E45.92330
G1 X103.133 Y91.847 E45.94984
G1 X108.153 Y96.867 E46.15023
G1 X108.153 Y97.808 E46.17677
G1 X102.192 Y91.847 E46.41469
G1 X101.252 Y91.847 E46.44124
G1 X108.153 Y98.748 E46.71670
G1 X108.153 Y99.689 E46.74324
G1 X100.311 Y91.847 E47.05624
G1 X99.371 Y91.847 E47.08279
G1 X108.153 Y100.629 E47.43333
G1 X108.153 Y101.570 E47.45987
G1 X98.430 Y91.847 E47.84795
G1 X97.490 Y91.847 E47.87450
G1 X108.153 Y102.510 E48.30012
G1 X108.153 Y103.451 E48.32667
G1 X96.549 Y91.847 E48.78983
G1 X95.609 Y91.847 E48.81637
G1 X108.153 Y104.391 E49.31707
G1 X108.153 Y105.332 E49.34362
G1 X94.668 Y91.847 E49.88186
G1 X93.728 Y91.847 E49.90840
G1 X108.153 Y106.272 E50.48419
G1 X108.153 Y107.213 E50.51073
G1 X92.787 Y91.847 E51.12405
G1 X91.867 Y91.867 E51.15004
G1 X108.133 Y108.133 E51.79930
G1 X107.212 Y108.153 E51.82529
G1 X91.847 Y92.788 E52.43861
G1 X91.847 Y93.728 E52.46516
G1 X106.272 Y108.153 E53.04094
G1 X105.332 Y108.153 E53.06748
G1 X91.847 Y94.668 E53.60572
G1 X91.847 Y95.609 E53.63227
G1 X104.391 Y108.153 E54.13297
G1 X103.451 Y108.153 E54.15951
G1 X91.847 Y96.549 E54.62267
G1 X91.847 Y97.490 E54.64922
G1 X102.510 Y108.153 E55.07484
G1 X101.570 Y108.153 E55.10138
G1 X91.847 Y98.430 E55.48946
G1 X91.847 Y99.371 E55.51601
G1 X100.629 Y108.153 E55.86655
G1 X99.689 Y108.153 E55.89309
G1 X91.847 Y100.311 E56.20609
G1 X91.847 Y101.252 E56.23264
G1 X98.748 Y108.153 E56.50810
G1 X97.808 Y108.153 E56.53464
G1 X91.847 Y102.192 E56.77256
G1 X91.847 Y103.133 E56.79911
G1 X96.867 Y108.153 E56.99949
G1 X95.927 Y108.153 E57.02603
G1 X91.847 Y104.073 E57.18887
G1 X91.847 Y105.014 E57.21542
G1 X94.986 Y108.153 E57.34071
G1 X94.046 Y108.153 E57.36726
G1 X91.847 Y105.954 E57.45502
G1 X91.847 Y106.895 E57.48156
G1 X93.105 Y108.153 E57.53178
G1 X92.165 Y108.153 E57.55833
G1 X91.847 Y107.835 E57.57101
M106 S247.35
G1 Z1.250 F7800.000
G1 X108.550 Y108.550 F7800.000
G1 X91.450 Y108.550 E58.04603 F3600.000
G1 X91.450 Y91.450 E58.52106
G1 X108.550 Y91.450 E58.99608
G1 X108.550 Y108.475 E59.46902
G1 X109.205 Y109.205 F7800.000
G1 X90.795 Y109.205 E59.98041 F3600.000
G1 X90.795 Y90.795 E60.49179
G1 X109.205 Y90.795 E61.00318
G1 X109.205 Y109.130 E61.51248
G1 X109.750 Y109.750 F7800.000
G1 X90.250 Y109.750 E61.87300 F1800.000
G1 X90.250 Y90.250 E62.23352
G1 X109.750 Y90.250 E62.59405
G1 X109.750 Y109.675 E62.95318
G1 X109.317 Y109.500 F7800.000
G1 X107.994 Y104.499 F7800.000
G1 X106.543 Y104.111 E62.99490 F4800.000
G1 X103.604 Y107.050 E63.11036
G1 X103.857 Y107.994 E63.13752
G1 X107.994 Y107.994 E63.25243
G1 X107.994 Y104.499 E63.34951
G1 X107.994 Y98.032 F7800.000
G1 X107.994 Y93.404 E63.47806 F4800.000
G1 X106.992 Y94.406 E63.51742
G1 X107.775 Y97.326 E63.60139
G1 X104.835 Y100.265 E63.71685
G1 X101.915 Y99.483 E63.80083
G1 X98.976 Y102.422 E63.91629
G1 X99.759 Y105.342 E64.00026
G1 X97.106 Y107.994 E64.10446
G1 X98.032 Y107.994 E64.13017
G1 X100.222 Y105.805 E64.21618
G1 X103.142 Y106.587 E64.30016
G1 X106.081 Y103.648 E64.41562
G1 X105.298 Y100.728 E64.49959
G1 X107.994 Y98.032 E64.60549
G1 X107.994 Y92.478 F7800.000
G1 X107.994 Y92.006 E64.61862 F4800.000
G1 X102.961 Y92.006 E64.75842
G1 X103.147 Y92.698 E64.77832
G1 X100.207 Y95.637 E64.89378
G1 X97.287 Y94.855 E64.97775
G1 X94.348 Y97.794 E65.09321
G1 X95.131 Y100.714 E65.17718
G1 X92.192 Y103.653 E65.29265
G1 X92.006 Y103.603 E65.29799
G1 X92.006 Y107.994 E65.41996
G1 X92.478 Y107.994 E65.43308
G1 X93.437 Y107.036 E65.47073
G1 X92.654 Y104.116 E65.55470
G1 X95.594 Y101.177 E65.67017
G1 X98.514 Y101.959 E65.75414
G1 X101.453 Y99.020 E65.86960
G1 X100.670 Y96.100 E65.95357
G1 X103.609 Y93.161 E66.06903
G1 X106.529 Y93.943 E66.15301
G1 X107.994 Y92.478 E66.21054
G1 X96.825 Y94.392 F7800.000
G1 X96.185 Y92.006 E66.27916 F4800.000
G1 X92.006 Y92.006 E66.39525
G1 X92.006 Y96.827 E66.52918
G1 X93.886 Y97.331 E66.58324
G1 X96.825 Y94.392 E66.69870
G1 X95.749 Y107.994 F7800.000
G1 X93.900 Y107.498 E66.75189 F4800.000
G1 X93.404 Y107.994 E66.77136
G1 X95.749 Y107.994 E66.83651
G1 Z1.550 F7800.000
G1 X108.550 Y108.550 F7800.000
G1 X91.450 Y108.550 E67.31153 F3600.000
G1 X91.450 Y91.450 E67.78656
G1 X108.550 Y91.450 E68.26158
G1 X108.550 Y108.475 E68.73453
G1 X109.205 Y109.205 F7800.000
G1 X90.795 Y109.205 E69.24591 F3600.000
G1 X90.795 Y90.795 E69.75730
G1 X109.205 Y90.795 E70.26868
G1 X109.205 Y109.130 E70.77798
G1 X109.750 Y109.750 F7800.000
G1 X90.250 Y109.750 E71.13851 F1800.000
G1 X90.250 Y90.250 E71.49903
G1 X109.750 Y90.250 E71.85955
G1 X109.750 Y109.675 E72.21868
G1 X109.317 Y109.500 F7800.000
G1 X107.994 Y92.941 F7800.000
G1 X107.162 Y93.774 E72.25139 F4800.000
G1 X107.994 Y96.880 E72.34073
G1 X107.994 Y104.499 E72.55237
G1 X106.543 Y104.111 E72.59408
G1 X105.468 Y100.096 E72.70954
G1 X107.605 Y97.958 E72.79352
G1 X106.529 Y93.943 E72.90898
G1 X103.609 Y93.161 E72.99295
G1 X103.300 Y92.006 E73.02616
G1 X107.994 Y92.006 E73.15655
G1 X107.994 Y92.941 E73.18253
G1 X102.977 Y93.330 F7800.000
G1 X100.840 Y95.468 E73.26650 F4800.000
G1 X101.915 Y99.483 E73.38196
G1 X104.835 Y100.265 E73.46593
G1 X105.911 Y104.280 E73.58140
G1 X103.774 Y106.418 E73.66537
G1 X104.196 Y107.994 E73.71071
G1 X103.519 Y107.994 E73.72953
G1 X103.142 Y106.587 E73.77000
G1 X100.222 Y105.805 E73.85397
G1 X99.146 Y101.790 E73.96943
G1 X101.283 Y99.652 E74.05340
G1 X100.207 Y95.637 E74.16886
G1 X97.287 Y94.855 E74.25284
G1 X96.524 Y92.006 E74.33476
G1 X102.622 Y92.006 E74.50415
G1 X102.977 Y93.330 E74.54223
G1 X96.655 Y95.024 F7800.000
G1 X94.518 Y97.162 E74.62621 F4800.000
G1 X95.594 Y101.177 E74.74167
G1 X98.514 Y101.959 E74.82564
G1 X99.589 Y105.974 E74.94110
G1 X97.569 Y107.994 E75.02046
G1 X95.749 Y107.994 E75.07101
G1 X93.900 Y107.498 E75.12421
G1 X92.824 Y103.484 E75.23967
G1 X94.961 Y101.346 E75.32364
G1 X93.886 Y97.331 E75.43910
G1 X92.006 Y96.827 E75.49316
G1 X92.006 Y92.006 E75.62708
G1 X95.847 Y92.006 E75.73377
G1 X96.655 Y95.024 E75.82056
G1 X92.192 Y103.653 F7800.000
G1 X93.267 Y107.668 E75.93603 F4800.000
G1 X92.941 Y107.994 E75.94884
G1 X92.006 Y107.994 E75.97482
G1 X92.006 Y103.603 E76.09679
G1 X92.192 Y103.653 E76.10213
G1 Z1.850 F7800.000
G1 X108.550 Y108.550 F7800.000
G1 X91.450 Y108.550 E76.57716 F3600.000
G1 X91.450 Y91.450 E77.05218
G1 X108.550 Y91.450 E77.52721
G1 X108.550 Y108.475 E78.00015
G1 X109.205 Y109.205 F7800.000
G1 X90.795 Y109.205 E78.51153 F3600.000
G1 X90.795 Y90.795 E79.02292
G1 X109.205 Y90.795 E79.53430
G1 X109.205 Y109.130 E80.04361
G1 X109.750 Y109.750 F7800.000
G1 X90.250 Y109.750 E80.40413 F1800.000
G1 X90.250 Y90.250 E80.76465
G1 X109.750 Y90.250 E81.12517
G1 X109.750 Y109.675 E81.48430
G1 X109.317 Y109.500 F7800.000
G1 X103.604 Y107.050 F7800.000
G1 X103.857 Y107.994 E81.51146 F4800.000
G1 X97.569 Y107.994 E81.68614
G1 X99.589 Y105.974 E81.76550
G1 X103.604 Y107.050 E81.88096
G1 X92.654 Y104.116 F7800.000
G1 X93.437 Y107.036 E81.96493 F4800.000
G1 X97.014 Y107.994 E82.06779
G1 X94.485 Y107.994 E82.13804
G1 X93.267 Y107.668 E82.17305
G1 X92.941 Y107.994 E82.18587
G1 X92.006 Y107.994 E82.21185
G1 X92.006 Y103.942 E82.32441
G1 X92.654 Y104.116 E82.34305
G1 X94.348 Y97.794 F7800.000
G1 X95.131 Y100.714 E82.42703 F4800.000
G1 X99.146 Y101.790 E82.54249
G1 X101.283 Y99.652 E82.62646
G1 X105.298 Y100.728 E82.74192
G1 X106.081 Y103.648 E82.82589
G1 X107.994 Y104.160 E82.88092
G1 X107.994 Y104.838 E82.89974
G1 X105.911 Y104.280 E82.95964
G1 X103.774 Y106.418 E83.04361
G1 X99.759 Y105.342 E83.15907
G1 X98.976 Y102.422 E83.24305
G1 X94.961 Y101.346 E83.35851
G1 X92.824 Y103.484 E83.44248
G1 X92.006 Y103.264 E83.46600
G1 X92.006 Y97.166 E83.63540
G1 X94.348 Y97.794 E83.70276
G1 X96.825 Y94.392 F7800.000
G1 X100.840 Y95.468 E83.81822 F4800.000
G1 X102.977 Y93.330 E83.90219
G1 X106.992 Y94.406 E84.01766
G1 X107.775 Y97.326 E84.10163
G1 X107.994 Y97.385 E84.10794
G1 X107.994 Y98.062 E84.12676
G1 X107.605 Y97.958 E84.13794
G1 X105.468 Y100.096 E84.22192
G1 X101.453 Y99.020 E84.33738
G1 X100.670 Y96.100 E84.42135
G1 X96.655 Y95.024 E84.53681
G1 X94.518 Y97.162 E84.62078
G1 X92.006 Y96.488 E84.69302
G1 X92.006 Y92.006 E84.81754
G1 X96.185 Y92.006 E84.93363
G1 X96.825 Y94.392 E85.00225
G1 X107.994 Y92.941 F7800.000
G1 X107.162 Y93.774 E85.03495 F4800.000
G1 X103.147 Y92.698 E85.15041
G1 X102.961 Y92.006 E85.17031
G1 X107.994 Y92.006 E85.31011
G1 X107.994 Y92.941 E85.33609
G1 Z2.150 F7800.000
G1 X108.550 Y108.550 F7800.000
G1 X91.450 Y108.550 E85.81112 F3600.000
G1 X91.450 Y91.450 E86.28614
G1 X108.550 Y91.450 E86.76117
G1 X108.550 Y108.475 E87.23411
G1 X109.205 Y109.205 F7800.000
