;FLAVOR:Marlin
;TIME:3373
;Filament used: 4.22644m
;Layer height: 0.2
;MINX:120.25
;MINY:134.748
;MINZ:0.15
;MAXX:179.732
;MAXY:165.252
;MAXZ:47.95
;Generated with Cura_SteamEngine 4.8.0
M104 S200
M105
M109 S200
M82 ;absolute extrusion mode
G21 ;metric values
G90 ;absolute positioning
M82 ;set extruder to absolute mode
M107 ;start with the fan off
M206 X-32 Y-25 Z0.15
G28 X0 Y0 Z0 ;move X/Y to min endstops
G92 E0 ;zero the extruded length
G1 Z10
G1 Y-3.0 F1000.0 ; go outside print area
G1 X90
G1 Z0
G1 X120.0 E21.5 F1000.0 ; intro line
G1 X80.0 E30.0 F1000
G92 E0 ;zero the extruded length again
M117 Printing...
G92 E0
G92 E0
G1 F2100 E-2
;LAYER_COUNT:240
;LAYER:0
M107
;MESH:3DBenchy.stl
G0 F3600 X142.877 Y150.931 Z0.15
;TYPE:WALL-INNER
G1 F2100 E0
G1 F1800 X142.877 Y150.761 E0.0053
G1 X142.876 Y149.086 E0.05753
G1 X142.876 Y149.085 E0.05756
G1 X142.876 Y148.815 E0.06598
G1 X143.146 Y148.837 E0.07132
G1 X143.497 Y148.866 E0.0823
G1 X143.606 Y148.909 E0.08596
G1 X143.703 Y149.05 E0.09129
G1 X143.81 Y149.355 E0.10137
G1 X143.865 Y149.803 E0.11545
G1 X143.853 Y150.263 E0.12979
G1 X143.782 Y150.634 E0.14157
G1 X143.668 Y150.895 E0.15045
G1 X143.465 Y151.063 E0.15867
G1 X143.067 Y151.106 E0.17115
G1 X142.898 Y151.124 E0.17524
G1 X142.872 Y151.127 E0.17606
G1 X142.877 Y150.931 E0.17965
G0 F3600 X142.377 Y150.925
;TYPE:WALL-OUTER
G1 F1800 X142.376 Y148.601 E0.25211
G1 X142.376 Y148.524 E0.25451
G1 X142.389 Y148.329 E0.26061
G1 X142.652 Y148.295 E0.26888
G1 X142.728 Y148.301 E0.27125
G1 X143.612 Y148.374 E0.29891
G1 X143.868 Y148.476 E0.3075
G1 X143.973 Y148.561 E0.31172
G1 X144.153 Y148.821 E0.32158
G1 X144.299 Y149.24 E0.33541
G1 X144.366 Y149.782 E0.35244
G1 X144.352 Y150.315 E0.36907
G1 X144.263 Y150.782 E0.38389
G1 X144.095 Y151.166 E0.39696
G1 X143.88 Y151.409 E0.40708
G1 X143.626 Y151.543 E0.41603
G1 X143.17 Y151.62 E0.43045
G1 X142.742 Y151.631 E0.4438
G1 X142.66 Y151.633 E0.44636
G1 X142.396 Y151.602 E0.45465
G1 X142.363 Y151.459 E0.45922
G1 X142.365 Y151.377 E0.46178
G1 X142.377 Y150.925 E0.47588
G0 F3600 X142.377 Y150.675
G0 X143.285 Y150.563
G1 F2100 E-1.52412
G0 F3600 X140.877 Y151.113
G0 X140.039 Y152.2
G0 X139.22 Y153.188
G0 X138.022 Y153.587
G0 X132.569 Y153.452
G0 X130.698 Y151.954
;TYPE:WALL-INNER
G1 F2100 E0.47588
G1 F1800 X130.63 Y151.776 E0.48182
G1 X130.573 Y151.627 E0.4868
G1 X130.326 Y150.984 E0.50827
G1 X129.601 Y150.434 E0.53665
G1 X128.747 Y150.254 E0.56386
G1 X127.913 Y150.479 E0.5908
G1 X127.744 Y150.638 E0.59803
G1 X127.586 Y150.786 E0.60478
G1 X127.458 Y150.772 E0.6088
G1 X127.378 Y150.583 E0.6152
G1 X127.361 Y150.367 E0.62067
G1 X127.317 Y149.831 E0.63744
G1 X127.34 Y149.593 E0.6449
G1 X127.351 Y149.476 E0.64856
G1 X127.439 Y149.238 E0.65648
G1 X127.448 Y149.212 E0.65733
G1 X127.471 Y149.151 E0.65937
G1 X127.514 Y149.174 E0.65963
G1 X127.617 Y149.23 E0.66281
G1 X127.867 Y149.366 E0.67157
G1 X127.892 Y149.376 E0.67238
G1 X128.568 Y149.654 E0.69517
G1 X129.479 Y149.599 E0.72363
G1 X130.106 Y149.116 E0.74831
G1 X130.571 Y149.308 E0.76399
G1 X131.038 Y149.27 E0.7786
G1 X131.038 Y149.306
G1 X131.041 Y150.167 E0.80545
G1 X131.039 Y151.111 E0.83489
G1 X131.042 Y151.457 E0.84568
G1 X131.043 Y151.617 E0.85038
G1 X131.039 Y151.958 E0.85925
G1 X131.037 Y152.124 E0.86348
G1 X131.027 Y152.528 E0.87608
G1 X131.015 Y153.001 E0.89083
G1 X131.572 Y153.842 E0.92228
G1 X132.472 Y154.175 E0.95221
G1 X133.366 Y154.096 E0.98019
G1 X134.118 Y153.562 E1.00895
G1 X134.467 Y152.76 E1.03622
G1 X134.475 Y152.4 E1.04745
G1 X134.486 Y151.902 E1.06298
G1 X134.484 Y151.754 E1.0676
G1 X134.484 Y151.696 E1.06941
G1 X134.478 Y151.368 E1.07964
G1 X134.481 Y150.716 E1.09997
G1 X134.481 Y149.251 E1.14565
G1 X134.714 Y149.249 E1.15291
G1 X135.308 Y149.121 E1.17186
G1 X135.501 Y149.08 E1.17801
G1 X135.58 Y149.012 E1.18126
G1 X135.719 Y149.149 E1.18735
G1 X135.688 Y149.344 E1.19212
G1 X135.599 Y149.892 E1.20943
G1 X135.861 Y150.653 E1.23453
G1 X135.393 Y150.912 E1.25121
G1 X134.981 Y151.695 E1.2788
G1 X134.954 Y151.746 E1.28054
G1 X134.958 Y151.886 E1.28465
G1 X134.974 Y152.384 E1.29975
G1 X134.984 Y152.651 E1.30808
G1 X135.353 Y153.394 E1.33395
G1 X135.967 Y153.909 E1.35894
G1 X136.594 Y154.164 E1.38004
G1 X137.352 Y154.299 E1.40405
G1 X138.088 Y154.298 E1.427
G1 X138.881 Y154.148 E1.45217
G1 X139.627 Y153.779 E1.47812
G1 X140.057 Y153.388 E1.49624
G1 X140.112 Y153.338 E1.49856
G1 X140.177 Y153.518 E1.50157
G1 X140.924 Y154.124 E1.53156
G1 X141.754 Y154.158 E1.55746
G1 X142.266 Y154.123 E1.57346
G1 X142.81 Y154.134 E1.59043
G1 X143.43 Y154.107 E1.60978
G1 X144.135 Y154.001 E1.63201
G1 X144.878 Y153.737 E1.6566
G1 X144.954 Y153.687 E1.65943
G1 X145.24 Y154.036 E1.6735
G1 X145.888 Y154.455 E1.69756
G1 X146.666 Y154.63 E1.72243
G1 X147.457 Y154.526 E1.74731
G1 X148.165 Y154.152 E1.77227
G1 X148.2 Y154.113 E1.77391
G1 X148.933 Y154.387 E1.79831
G1 X149.851 Y154.165 E1.82776
G1 X150.068 Y153.946 E1.83737
G1 X150.079 Y153.935 E1.83786
G1 X150.105 Y153.968
G1 X150.147 Y154.023 E1.83906
G1 X150.966 Y154.376 E1.86687
G1 X151.148 Y154.355 E1.87258
G1 X151.139 Y154.408
G1 X151.003 Y155.132 E1.89555
G1 X151.245 Y155.96 E1.92245
G1 X151.625 Y156.399 E1.94055
G1 X151.775 Y156.572 E1.94769
G1 X151.828 Y156.633 E1.95021
G1 X152.007 Y156.688 E1.95605
G1 X151.839 Y156.71 E1.95631
G1 X151.577 Y156.745 E1.9613
G1 X151.348 Y156.766 E1.96695
G1 X151.028 Y156.797 E1.97697
G1 X150.605 Y156.82 E1.99018
G1 X149.647 Y156.825 E2.02005
G1 X149.08 Y156.797 E2.03775
G1 X147.462 Y156.7 E2.0883
G1 X147.346 Y156.69 E2.09193
G1 X145.818 Y156.6 E2.13965
G1 X145.283 Y156.565 E2.15637
G1 X144 Y156.489 E2.19645
G1 X143.133 Y156.435 E2.22353
G1 X141.797 Y156.357 E2.26526
G1 X141.667 Y156.346 E2.26933
G1 X140.308 Y156.266 E2.31178
G1 X140.158 Y156.255 E2.31647
G1 X137.033 Y156.068 E2.41409
G1 X135.385 Y155.966 E2.46557
G1 X133.899 Y155.879 E2.51199
G1 X133.288 Y155.839 E2.53108
G1 X132.315 Y155.782 E2.56147
G1 X125.922 Y155.392 E2.76118
G1 X125.58 Y155.285 E2.77236
G1 X125.443 Y155.092 E2.77974
G1 X125.4 Y154.922 E2.78521
G1 X125.39 Y154.585 E2.79572
G1 X125.39 Y154.052 E2.81234
G1 X125.39 Y154.051 E2.81237
G1 X125.39 Y153.627 E2.82559
G1 X125.761 Y153.833 E2.83312
G1 X126.127 Y154.037 E2.84618
G1 X126.89 Y154.254 E2.87092
G1 X127.643 Y154.311 E2.89447
G1 X128.451 Y154.231 E2.91978
G1 X129.251 Y153.953 E2.94619
G1 X129.913 Y153.478 E2.9716
G1 X130.399 Y152.829 E2.99688
G1 X130.551 Y152.385 E3.01151
G1 X130.681 Y152.003 E3.02255
G1 X130.698 Y151.954 E3.02319
G0 F3600 X132.039 Y153.255
G0 X138.022 Y153.587
G0 X139.22 Y153.188
G0 X140.039 Y152.2
G0 X140.586 Y150.092
G0 X140.568 Y147.191
G0 X141.383 Y146.52
G0 X142.424 Y146.52
G0 X156.09 Y147.176
G1 F1800 X155.111 Y147.372 E3.05432
G1 X154.743 Y147.75 E3.07077
G1 X154.568 Y147.929 E3.07858
G1 X154.39 Y147.753 E3.08361
G1 X154.099 Y147.465 E3.09638
G1 X153.208 Y147.203 E3.12534
G1 X152.244 Y147.374 E3.15587
G1 X152.135 Y147.459 E3.16018
G1 X151.176 Y147.162 E3.19148
G1 X150.303 Y147.486 E3.22052
G1 X150.185 Y147.605 E3.22574
G1 X149.54 Y147.227 E3.24905
G1 X148.61 Y147.268 E3.27808
G1 X147.81 Y147.753 E3.30725
G1 X147.39 Y148.585 E3.33631
G1 X147.48 Y149.424 E3.36262
G1 X147.701 Y149.897 E3.3789
G1 X147.791 Y150.089 E3.38551
G1 X148.039 Y150.521 E3.40105
G1 X147.666 Y150.303 E3.40397
G1 X147.554 Y150.237 E3.40526
G1 X147.345 Y150.2 E3.41058
G1 X146.862 Y150.112 E3.42589
G1 X146.871 Y149.831 E3.43466
G1 X146.827 Y149.187 E3.45479
G1 X146.696 Y148.494 E3.47678
G1 X146.44 Y147.788 E3.50019
G1 X146.021 Y147.1 E3.52531
G1 X145.461 Y146.527 E3.55029
G1 X144.774 Y146.118 E3.57522
G1 X144.03 Y145.903 E3.59937
G1 X143.275 Y145.814 E3.62308
G1 X142.607 Y145.798 E3.64391
G1 X142.007 Y145.793 E3.66262
G1 X141.228 Y145.814 E3.68692
G1 X140.395 Y146.166 E3.71512
G1 X140.146 Y146.54 E3.72913
G1 X140.112 Y146.512
G1 X139.515 Y146.021 E3.75323
G1 X138.754 Y145.725 E3.77869
G1 X137.926 Y145.618 E3.80473
G1 X137.131 Y145.659 E3.82955
G1 X136.355 Y145.866 E3.85459
G1 X135.816 Y146.176 E3.87398
G1 X135.58 Y145.929 E3.88463
G1 X134.741 Y145.789 E3.91115
G1 X134.133 Y145.801 E3.93012
G1 X133.454 Y145.796 E3.95129
G1 X132.684 Y145.798 E3.9753
G1 X132.043 Y145.795 E3.99529
G1 X131.531 Y145.806 E4.01125
G1 X130.961 Y145.76 E4.02909
G1 X130.157 Y145.85 E4.05431
G1 X129.658 Y146.271 E4.07467
G1 X129.353 Y146.038 E4.08664
G1 X128.599 Y145.732 E4.11201
G1 X127.758 Y145.62 E4.13847
G1 X126.943 Y145.666 E4.16392
G1 X126.128 Y145.89 E4.19027
G1 X125.76 Y146.096 E4.20342
G1 X125.388 Y146.304 E4.21671
G1 X125.388 Y145.878 E4.22427
G1 X125.388 Y145.221 E4.24475
G1 X125.421 Y144.977 E4.25243
G1 X125.552 Y144.74 E4.26087
G1 X125.804 Y144.623 E4.26954
G1 X126.264 Y144.587 E4.28393
G1 X129.406 Y144.395 E4.38208
G1 X149.353 Y143.188 E5.00519
G1 X149.948 Y143.169 E5.02375
G1 X150.504 Y143.176 E5.04109
G1 X151.017 Y143.202 E5.05711
G1 X151.549 Y143.251 E5.07377
G1 X152.061 Y143.317 E5.08987
G1 X152.578 Y143.404 E5.10621
G1 X153.059 Y143.506 E5.12154
G1 X153.579 Y143.634 E5.13824
G1 X154.521 Y143.923 E5.16897
G1 X155.398 Y144.263 E5.1983
G1 X155.854 Y144.469 E5.2139
G1 X156.677 Y144.89 E5.24272
G1 X157.445 Y145.353 E5.27069
G1 X157.947 Y145.694 E5.28961
G1 X158.295 Y145.951 E5.3031
G1 X158.743 Y146.306 E5.32092
G1 X159.063 Y146.583 E5.33412
G1 X159.265 Y146.769 E5.34268
G1 X159.505 Y146.99 E5.35285
G1 X159.749 Y147.236 E5.36366
G1 X159.505 Y147.236 E5.36485
G1 X159.178 Y147.235 E5.37264
G1 X158.338 Y147.232 E5.39883
G1 X157.697 Y147.236 E5.41882
G1 X156.933 Y147.388 E5.44311
G1 X156.774 Y147.518 E5.44951
G1 X156.09 Y147.176 E5.47336
G0 F3600 X160.102 Y147.946
G0 X161.502 Y149.965
G1 F1800 X161.514 Y149.921 E5.47478
G1 X161.608 Y149.6 E5.48521
G1 X161.734 Y149.846 E5.48703
G1 X161.817 Y150.008 E5.48962
G1 X161.765 Y150.105 E5.49212
G1 X161.59 Y150.432 E5.5023
G1 X161.349 Y150.786 E5.51565
G1 X161.089 Y151.167 E5.53003
G1 X160.783 Y151.036 E5.54041
G1 X160.823 Y150.98
G1 X161.086 Y150.607 E5.54954
G1 X161.314 Y150.254 E5.55796
G1 X161.502 Y149.965 E5.56452
G0 F3600 X159.555 Y151.564
G0 X160.65 Y151.741
G0 X160.693 Y153.078
G0 X159.814 Y153.606
G0 X156.904 Y154.25
G1 F1800 X157.227 Y154.291 E5.57467
G1 X157.575 Y154.335 E5.58561
G1 X157.741 Y154.356 E5.59083
G1 X157.885 Y154.348 E5.59532
G1 X157.783 Y154.417 E5.59545
G1 X157.545 Y154.579 E5.59988
G1 X157.249 Y154.768 E5.6082
G1 X157.114 Y154.855 E5.61321
G1 X156.277 Y155.323 E5.64311
G1 X155.794 Y155.561 E5.6599
G1 X155.593 Y155.645 E5.66669
G1 X155.517 Y155.677 E5.66927
G1 X154.948 Y155.917 E5.68852
G1 X155.348 Y155.278 E5.70045
G1 X155.381 Y155.202 E5.70287
G1 X155.602 Y154.699 E5.72001
G1 X155.854 Y154.058 E5.74148
G1 X155.95 Y153.804 E5.74995
G1 X156.038 Y153.569 E5.75777
G1 X156.05 Y153.534 E5.75893
G1 X156.121 Y153.338 E5.76543
G1 X156.18 Y153.522 E5.76629
G1 X156.202 Y153.588
G1 X156.384 Y153.76 E5.77192
G1 X156.904 Y154.25 E5.7942
G0 F3600 X153.946 Y155.847
G0 X152.736 Y156.167
G0 X151.883 Y155.61
G0 X151.64 Y154.441
G1 F1800 X151.516 Y155.106 E5.81529
G1 X151.694 Y155.715 E5.83507
G1 X152.112 Y156.197 E5.85497
G1 X152.714 Y156.383 E5.87461
G1 X153.337 Y156.313 E5.89416
G1 X154.058 Y156.03 E5.91831
G1 X154.552 Y155.609 E5.93855
G1 X154.905 Y155.044 E5.95933
G1 X155.14 Y154.507 E5.9776
G1 X155.387 Y153.878 E5.99868
G1 X155.569 Y153.396 E6.01474
G1 X155.841 Y152.64 E6.03979
G1 X156 Y152.194 E6.05456
G1 X156.089 Y151.943 E6.06286
G1 X156.286 Y151.39 E6.08117
G1 X156.377 Y151.135 E6.08961
G1 X156.556 Y150.621 E6.10658
G1 X156.72 Y150.128 E6.12278
G1 X156.812 Y149.925 E6.12973
G1 X156.849 Y149.845 E6.13248
G1 X156.932 Y149.94 E6.13349
G1 X156.991 Y150.006 E6.13468
G1 X157.423 Y150.148 E6.14886
G1 X157.549 Y150.189 E6.15299
G1 X157.726 Y150.201 E6.15853
G1 X157.673 Y150.276
G1 X157.519 Y150.492 E6.16454
G1 X157.442 Y150.599 E6.16865
G1 X156.768 Y151.536 E6.20464
G1 X156.756 Y151.561 E6.20551
G1 X156.497 Y152.088 E6.22259
G1 X156.473 Y152.354 E6.23037
G1 X156.44 Y152.7 E6.24121
G1 X156.638 Y153.312 E6.26126
G1 X157.128 Y153.774 E6.28226
G1 X157.76 Y153.854 E6.30213
G1 X158.335 Y153.824 E6.32008
G1 X158.601 Y153.829 E6.32838
G1 X158.842 Y153.832 E6.33589
G1 X159.345 Y153.833 E6.35158
G1 X159.048 Y154.079 E6.35474
G1 X158.863 Y154.233 E6.36098
G1 X158.7 Y154.369 E6.3676
G1 X158.227 Y154.721 E6.38598
G1 X157.826 Y154.993 E6.40109
G1 X157.375 Y155.282 E6.4178
G1 X156.93 Y155.541 E6.43385
G1 X156.511 Y155.766 E6.44868
G1 X156.015 Y156.01 E6.46592
G1 X155.585 Y156.2 E6.48057
G1 X155.04 Y156.42 E6.4989
G1 X154.11 Y156.735 E6.52952
G1 X153.588 Y156.882 E6.54643
G1 X153.104 Y156.997 E6.56194
G1 X152.611 Y157.098 E6.57763
G1 X152.149 Y157.174 E6.59223
G1 X151.634 Y157.242 E6.60843
G1 X151.075 Y157.295 E6.62594
G1 X150.614 Y157.32 E6.64033
G1 X149.644 Y157.325 E6.67058
G1 X149.05 Y157.296 E6.68912
G1 X147.432 Y157.199 E6.73966
G1 X147.311 Y157.189 E6.74345
G1 X145.785 Y157.099 E6.79112
G1 X145.252 Y157.064 E6.80777
G1 X143.969 Y156.988 E6.84785
G1 X143.103 Y156.934 E6.8749
G1 X141.768 Y156.856 E6.9166
G1 X141.632 Y156.845 E6.92085
G1 X140.271 Y156.765 E6.96337
G1 X140.124 Y156.754 E6.96796
G1 X137.003 Y156.567 E7.06545
G1 X135.355 Y156.465 E7.11694
G1 X133.866 Y156.378 E7.16345
G1 X133.257 Y156.338 E7.18248
G1 X132.285 Y156.281 E7.21284
G1 X125.854 Y155.889 E7.41374
G1 X125.514 Y155.817 E7.42457
G1 X125.28 Y155.691 E7.43286
G1 X125.113 Y155.527 E7.44016
G1 X124.974 Y155.277 E7.44908
G1 X124.902 Y154.991 E7.45828
G1 X124.89 Y154.585 E7.47094
G1 X124.89 Y152.998 E7.52043
G1 X124.89 Y152.712 E7.52934
G1 X124.89 Y152.33 E7.54125
G1 X125.142 Y152.712 E7.54614
G1 X125.35 Y152.907 E7.553
G1 X125.678 Y153.215 E7.56703
G1 X126.319 Y153.572 E7.58991
G1 X126.978 Y153.759 E7.61127
G1 X127.637 Y153.809 E7.63187
G1 X128.343 Y153.739 E7.654
G1 X129.019 Y153.504 E7.67631
G1 X129.559 Y153.117 E7.69703
G1 X129.951 Y152.593 E7.71743
G1 X130.166 Y151.964 E7.73816
G1 X129.91 Y151.296 E7.76047
G1 X129.388 Y150.9 E7.7809
G1 X128.761 Y150.768 E7.80088
G1 X128.164 Y150.929 E7.82016
G1 X127.807 Y151.265 E7.83544
G1 X127.48 Y151.301 E7.8457
G1 X127.27 Y151.244 E7.85249
G1 X127.119 Y151.149 E7.85805
G1 X127.009 Y151.01 E7.86358
G1 X126.894 Y150.721 E7.87327
G1 X126.831 Y150.347 E7.8851
G1 X126.816 Y149.819 E7.90157
G1 X126.857 Y149.384 E7.91519
G1 X126.956 Y149.029 E7.92669
G1 X127.075 Y148.827 E7.934
G1 X127.201 Y148.721 E7.93913
G1 X127.39 Y148.644 E7.94549
G1 X127.669 Y148.663 E7.95421
G1 X128.092 Y148.918 E7.96962
G1 X128.652 Y149.148 E7.98849
G1 X129.296 Y149.109 E8.00861
G1 X129.832 Y148.697 E8.02969
G1 X129.922 Y148.495 E8.03659
G1 X129.965 Y148.399 E8.03987
G1 X130.061 Y148.545 E8.04193
G1 X130.072 Y148.561
G1 X130.651 Y148.8 E8.06146
G1 X131.245 Y148.752 E8.08004
G1 X131.333 Y148.745 E8.0828
G1 X131.524 Y148.737 E8.08876
G1 X131.552 Y148.735 E8.08963
G1 X131.551 Y148.756
G1 X131.537 Y149.011 E8.09431
G1 X131.537 Y149.1 E8.09709
G1 X131.541 Y150.168 E8.13039
G1 X131.539 Y151.11 E8.15976
G1 X131.543 Y151.623 E8.17576
G1 X131.537 Y152.136 E8.19175
G1 X131.519 Y152.856 E8.21421
G1 X131.899 Y153.43 E8.23568
G1 X132.54 Y153.667 E8.25699
G1 X133.187 Y153.61 E8.27724
G1 X133.715 Y153.235 E8.29743
G1 X133.969 Y152.651 E8.31729
G1 X133.986 Y151.9 E8.34071
G1 X133.978 Y151.366 E8.35737
G1 X133.981 Y150.715 E8.37767
G1 X133.98 Y149.4 E8.41867
G1 X133.983 Y148.796 E8.4375
G1 X133.986 Y148.755 E8.43878
G1 X134.659 Y148.749 E8.45977
G1 X135.271 Y148.618 E8.47929
G1 X135.607 Y148.329 E8.4931
G1 X135.631 Y148.308 E8.4941
G1 X135.665 Y148.396
G1 X136.143 Y148.865 E8.51498
G1 X136.281 Y148.893 E8.51937
G1 X136.412 Y148.921 E8.52355
G1 X136.352 Y149.008 E8.52414
G1 X136.217 Y149.205 E8.52875
G1 X136.113 Y149.848 E8.54906
G1 X136.329 Y150.475 E8.56973
G1 X136.549 Y150.615 E8.57786
G1 X136.847 Y150.805 E8.58888
G1 X136.977 Y150.83 E8.59301
G1 X137.436 Y150.92 E8.6076
G1 X137.532 Y150.96 E8.61084
G1 X137.652 Y151.01 E8.61489
G1 X137.855 Y151.249 E8.62467
G1 X137.836 Y151.381 E8.62883
G1 X137.787 Y151.347
G1 X137.539 Y151.174 E8.63225
G1 X137.465 Y151.123 E8.63291
G1 X137.375 Y151.09 E8.63307
G1 X136.957 Y150.938 E8.63685
G1 X136.854 Y150.942 E8.63691
G1 X136.353 Y150.966 E8.64668
G1 X136.325 Y150.968 E8.64756
G1 X135.766 Y151.277 E8.66747
