; generated by Slic3r 1.2.9 on 2021-03-15 at 16:19:57

; external perimeters extrusion width = 0.50mm
; perimeters extrusion width = 0.72mm
; infill extrusion width = 0.72mm
; solid infill extrusion width = 0.72mm
; top infill extrusion width = 0.72mm

M107
M104 S200 ; set temperature
G28 ; home all axes
G1 Z5 F5000 ; lift nozzle

M109 S200 ; wait for temperature to be reached
G21 ; set units to millimeters
G90 ; use absolute coordinates
M82 ; use absolute distances for extrusion
G92 E0
G1 Z0.350 F7800.000
G1 E-2.00000 F2400.00000
G92 E0
G1 X93.127 Y93.402 F7800.000
G1 E2.00000 F2400.00000
G1 X94.156 Y92.475 E2.04285 F1214.330
G1 X94.649 Y92.117 E2.06170
G1 X95.848 Y91.424 E2.10455
G1 X96.405 Y91.177 E2.12340
G1 X97.722 Y90.749 E2.16625
G1 X98.318 Y90.622 E2.18510
G1 X99.695 Y90.477 E2.22796
G1 X100.305 Y90.477 E2.24680
G1 X101.682 Y90.622 E2.28966
G1 X102.278 Y90.749 E2.30851 F1214.330
G1 X103.595 Y91.177 E2.35136
G1 X104.152 Y91.424 E2.37021
G1 X105.351 Y92.117 E2.41306
G1 X105.844 Y92.475 E2.43191
G1 X106.873 Y93.402 E2.47476
G1 X107.281 Y93.854 E2.49361
G1 X108.095 Y94.975 E2.53647
G1 X108.399 Y95.502 E2.55531
G1 X108.963 Y96.768 E2.59816
G1 X109.070 Y97.100 E2.60896
G1 X109.151 Y97.347 E2.61701
G1 X109.439 Y98.702 E2.65987
G1 X109.502 Y99.308 E2.67872
G1 X109.502 Y100.692 E2.72157
G1 X109.439 Y101.298 E2.74042
G1 X109.151 Y102.653 E2.78327
G1 X108.963 Y103.232 E2.80212
G1 X108.399 Y104.498 E2.84497
G1 X108.095 Y105.025 E2.86382
G1 X107.281 Y106.146 E2.90667
G1 X106.873 Y106.598 E2.92552
G1 X105.844 Y107.525 E2.96837
G1 X105.351 Y107.883 E2.98722
G1 X104.152 Y108.576 E3.03008
G1 X103.595 Y108.823 E3.04893
G1 X102.278 Y109.251 E3.09178
G1 X101.682 Y109.378 E3.11063
G1 X100.305 Y109.523 E3.15348
G1 X99.695 Y109.523 E3.17233
G1 X98.318 Y109.378 E3.21518
G1 X97.722 Y109.251 E3.23403
G1 X96.405 Y108.823 E3.27688
G1 X95.848 Y108.576 E3.29573
G1 X94.649 Y107.883 E3.33858
G1 X94.156 Y107.525 E3.35743
G1 X93.127 Y106.598 E3.40028
G1 X92.893 Y106.339 E3.41108
G1 X92.719 Y106.146 E3.41913
G1 X91.905 Y105.025 E3.46199
G1 X91.601 Y104.498 E3.48084
G1 X91.037 Y103.232 E3.52369
G1 X90.849 Y102.653 E3.54254
G1 X90.561 Y101.298 E3.58539
G1 X90.498 Y100.692 E3.60424
G1 X90.498 Y99.308 E3.64709
G1 X90.561 Y98.702 E3.66594
G1 X90.849 Y97.347 E3.70879
G1 X91.037 Y96.768 E3.72764
G1 X91.601 Y95.502 E3.77049
G1 X91.905 Y94.975 E3.78934
G1 X92.719 Y93.854 E3.83220
G1 X93.077 Y93.457 E3.84873
G1 E1.84873 F2400.00000
G92 E0
G1 X100.873 Y100.970 F7800.000
G1 E2.00000 F2400.00000
G1 X100.653 Y101.130 E2.00844 F1214.330
G1 X100.403 Y101.241 E2.01689
G1 X100.136 Y101.298 E2.02533
G1 X99.864 Y101.298 E2.03377
G1 X99.597 Y101.241 E2.04222
G1 X99.347 Y101.130 E2.05066
G1 X99.127 Y100.970 E2.05910
G1 X98.944 Y100.767 E2.06755
G1 X98.808 Y100.531 E2.07599
G1 X98.723 Y100.271 E2.08443
G1 X98.695 Y100.000 E2.09288
G1 X98.723 Y99.729 E2.10132
G1 X98.808 Y99.469 E2.10976
G1 X98.944 Y99.233 E2.11821
G1 X99.127 Y99.030 E2.12665
G1 X99.347 Y98.870 E2.13509
G1 X99.597 Y98.759 E2.14354
G1 X99.864 Y98.702 E2.15198
G1 X100.136 Y98.702 E2.16042
G1 X100.313 Y98.739 E2.16602
G1 X100.403 Y98.759 E2.16887 F1214.330
G1 X100.653 Y98.870 E2.17731
G1 X100.873 Y99.030 E2.18575
G1 X101.056 Y99.233 E2.19420
G1 X101.192 Y99.469 E2.20264
G1 X101.277 Y99.729 E2.21108
G1 X101.305 Y100.000 E2.21953
G1 X101.277 Y100.271 E2.22797
G1 X101.192 Y100.531 E2.23641
G1 X101.056 Y100.767 E2.24486
G1 X100.924 Y100.914 E2.25098
G1 X101.338 Y101.388 F7800.000
G1 X100.967 Y101.675 E2.26548 F1214.330
G1 X100.598 Y101.839 E2.27799
G1 X100.202 Y101.923 E2.29050
G1 X99.798 Y101.923 E2.30300
G1 X99.402 Y101.839 E2.31551
G1 X99.033 Y101.675 E2.32802
G1 X98.706 Y101.437 E2.34053
G1 X98.436 Y101.137 E2.35303
G1 X98.234 Y100.786 E2.36554
G1 X98.109 Y100.402 E2.37805
G1 X98.066 Y100.000 E2.39056
G1 X98.109 Y99.598 E2.40306
G1 X98.234 Y99.214 E2.41557
G1 X98.436 Y98.863 E2.42808
G1 X98.706 Y98.563 E2.44059
G1 X99.033 Y98.325 E2.45310
G1 X99.402 Y98.161 E2.46560
G1 X99.798 Y98.077 E2.47811
G1 X100.202 Y98.077 E2.49062
G1 X100.443 Y98.128 E2.49825
G1 X100.598 Y98.161 E2.50313 F1214.330
G1 X100.967 Y98.325 E2.51563
G1 X101.294 Y98.563 E2.52814
G1 X101.564 Y98.863 E2.54065
G1 X101.766 Y99.214 E2.55316
G1 X101.891 Y99.598 E2.56566
G1 X101.934 Y100.000 E2.57817
G1 X101.891 Y100.402 E2.59068
G1 X101.766 Y100.786 E2.60319
G1 X101.564 Y101.137 E2.61569
G1 X101.388 Y101.332 E2.62385
G1 X101.802 Y101.806 F7800.000
G1 X101.714 Y101.904 E2.62791 F1214.330
G1 X101.281 Y102.219 E2.64449
G1 X100.792 Y102.437 E2.66106
G1 X100.268 Y102.548 E2.67763
G1 X99.732 Y102.548 E2.69420
G1 X99.208 Y102.437 E2.71077
G1 X98.719 Y102.219 E2.72735
G1 X98.286 Y101.904 E2.74392
G1 X97.927 Y101.506 E2.76049
G1 X97.660 Y101.042 E2.77706
G1 X97.494 Y100.533 E2.79363
G1 X97.438 Y100.000 E2.81021
G1 X97.494 Y99.467 E2.82678
G1 X97.660 Y98.958 E2.84335
G1 X97.927 Y98.494 E2.85992
G1 X98.286 Y98.096 E2.87649
G1 X98.719 Y97.781 E2.89307
G1 X99.208 Y97.563 E2.90964
G1 X99.732 Y97.452 E2.92621
G1 X100.268 Y97.452 E2.94278
G1 X100.573 Y97.517 E2.95244
G1 X100.792 Y97.563 E2.95935 F1214.330
G1 X101.281 Y97.781 E2.97593
G1 X101.714 Y98.096 E2.99250
G1 X102.073 Y98.494 E3.00907
G1 X102.340 Y98.958 E3.02564
G1 X102.506 Y99.467 E3.04221
G1 X102.562 Y100.000 E3.05879
G1 X102.506 Y100.533 E3.07536
G1 X102.340 Y101.042 E3.09193
G1 X102.073 Y101.506 E3.10850
G1 X101.852 Y101.751 E3.11869
G1 X101.674 Y101.779 F7800.000
G1 X100.795 Y99.706 F7800.000
G1 X100.293 Y99.204 E3.14575 F1214.330
G1 X99.323 Y99.323 E3.18303
G1 X100.677 Y100.677 E3.25607
G1 X99.707 Y100.796 E3.29335
G1 X99.205 Y100.294 E3.32041
G1 Z0.650 F7800.000
G1 E1.32041 F2400.00000
G92 E0
G1 X102.115 Y102.088 F7800.000
G1 E2.00000 F2400.00000
G1 X101.998 Y102.219 E2.00488 F900.000
G1 X101.493 Y102.585 E2.02221
G1 X100.923 Y102.839 E2.03955
G1 X100.312 Y102.969 E2.05689
G1 X99.688 Y102.969 E2.07422
G1 X99.077 Y102.839 E2.09156
G1 X98.507 Y102.585 E2.10890
G1 X98.002 Y102.219 E2.12623
G1 X97.585 Y101.755 E2.14357
G1 X97.273 Y101.214 E2.16091
G1 X97.080 Y100.621 E2.17824
G1 X97.015 Y100.000 E2.19558
G1 X97.080 Y99.379 E2.21291
G1 X97.273 Y98.786 E2.23025
G1 X97.585 Y98.245 E2.24759
G1 X98.002 Y97.781 E2.26492
G1 X98.507 Y97.415 E2.28226
G1 X99.077 Y97.161 E2.29960
G1 X99.688 Y97.031 E2.31693
G1 X100.345 Y97.038 E2.33518
G1 X100.923 Y97.161 E2.35159 F900.000
G1 X101.493 Y97.415 E2.36892
G1 X101.998 Y97.781 E2.38626
G1 X102.415 Y98.245 E2.40360
G1 X102.727 Y98.786 E2.42093
G1 X102.920 Y99.379 E2.43827
G1 X102.985 Y100.000 E2.45561
G1 X102.920 Y100.621 E2.47294
G1 X102.727 Y101.214 E2.49028
G1 X102.415 Y101.755 E2.50761
G1 X102.165 Y102.032 E2.51799
G1 X102.601 Y102.526 F7800.000
G1 X102.438 Y102.708 E2.52478 F900.000
G1 X101.822 Y103.155 E2.54594
G1 X101.126 Y103.465 E2.56709
G1 X100.381 Y103.624 E2.58825
G1 X99.619 Y103.624 E2.60941
G1 X98.874 Y103.465 E2.63057
G1 X98.178 Y103.155 E2.65173
G1 X97.562 Y102.708 E2.67288
G1 X97.052 Y102.142 E2.69404
G1 X96.672 Y101.482 E2.71520
G1 X96.436 Y100.758 E2.73636
G1 X96.357 Y100.000 E2.75752
G1 X96.436 Y99.242 E2.77868
G1 X96.672 Y98.518 E2.79983
G1 X97.052 Y97.858 E2.82099
G1 X97.562 Y97.292 E2.84215
G1 X98.178 Y96.845 E2.86331
G1 X98.874 Y96.535 E2.88447
G1 X99.619 Y96.376 E2.90562
G1 X100.381 Y96.376 E2.92678
G1 X100.481 Y96.398 E2.92962
G1 X101.126 Y96.535 E2.94794 F900.000
G1 X101.822 Y96.845 E2.96910
G1 X102.438 Y97.292 E2.99026
G1 X102.948 Y97.858 E3.01141
G1 X103.328 Y98.518 E3.03257
G1 X103.564 Y99.242 E3.05373
G1 X103.643 Y100.000 E3.07489
G1 X103.564 Y100.758 E3.09605
G1 X103.328 Y101.482 E3.11720
G1 X102.948 Y102.142 E3.13836
G1 X102.652 Y102.470 E3.15065
G1 X103.007 Y102.891 F7800.000
G1 X102.805 Y103.115 E3.15903 F900.000
G1 X102.096 Y103.630 E3.18337
G1 X101.295 Y103.986 E3.20771
G1 X100.438 Y104.169 E3.23205
G1 X99.562 Y104.169 E3.25639
G1 X98.705 Y103.986 E3.28073
G1 X97.904 Y103.630 E3.30507
G1 X97.195 Y103.115 E3.32941
G1 X96.609 Y102.464 E3.35376
G1 X96.171 Y101.705 E3.37810
G1 X95.900 Y100.871 E3.40244
G1 X95.808 Y100.000 E3.42678
G1 X95.900 Y99.129 E3.45112
G1 X96.171 Y98.295 E3.47546
G1 X96.609 Y97.536 E3.49980
G1 X97.195 Y96.885 E3.52414
G1 X97.904 Y96.370 E3.54848
G1 X98.705 Y96.014 E3.57282
G1 X99.562 Y95.831 E3.59716
G1 X100.438 Y95.831 E3.62150
G1 X100.594 Y95.865 E3.62593
G1 X101.295 Y96.014 E3.64584 F900.000
G1 X102.096 Y96.370 E3.67019
G1 X102.805 Y96.885 E3.69453
G1 X103.391 Y97.536 E3.71887
G1 X103.829 Y98.295 E3.74321
G1 X104.100 Y99.129 E3.76755
G1 X104.192 Y100.000 E3.79189
G1 X104.100 Y100.871 E3.81623
G1 X103.829 Y101.705 E3.84057
G1 X103.391 Y102.464 E3.86491
G1 X103.057 Y102.835 E3.87879
G1 X102.032 Y101.394 F7800.000
G1 X101.394 Y102.032 E3.90531 F1200.000
G1 X102.585 Y99.862 F7800.000
G1 X99.876 Y102.572 E4.01786 F1200.000
G1 X99.035 Y102.434 E4.04290
G1 X102.430 Y99.039 E4.18395
G1 X102.093 Y98.396 E4.20525
G1 X98.403 Y102.086 E4.35857
G1 X97.907 Y101.604 E4.37891
G1 X101.597 Y97.914 E4.53222
G1 X100.965 Y97.566 E4.55340
G1 X97.570 Y100.961 E4.69444
G1 X97.415 Y100.138 E4.71907
G1 X100.121 Y97.432 E4.83149
G1 X98.606 Y97.968 F7800.000
G1 X97.968 Y98.606 E4.85800 F1200.000
G1 Z0.950 F7800.000
G1 X103.158 Y103.027 F7800.000
G1 X102.942 Y103.267 E4.86698 F900.000
G1 X102.198 Y103.808 E4.89251
G1 X101.359 Y104.182 E4.91804
G1 X100.460 Y104.373 E4.94358
G1 X99.540 Y104.373 E4.96911
G1 X98.641 Y104.182 E4.99464
G1 X97.802 Y103.808 E5.02018
G1 X97.058 Y103.267 E5.04571
G1 X96.443 Y102.584 E5.07124
G1 X95.983 Y101.788 E5.09677
G1 X95.699 Y100.914 E5.12231
G1 X95.603 Y100.000 E5.14784
G1 X95.699 Y99.086 E5.17337
G1 X95.983 Y98.212 E5.19890
G1 X96.443 Y97.416 E5.22444
G1 X97.055 Y96.736 E5.24985
G1 X97.830 Y96.180 E5.27633
G1 X98.641 Y95.818 E5.30101
G1 X99.540 Y95.627 E5.32655
G1 X100.460 Y95.627 E5.35208
G1 X101.359 Y95.818 E5.37761
G1 X102.198 Y96.192 E5.40314 F900.000
G1 X102.942 Y96.733 E5.42868
G1 X103.557 Y97.416 E5.45421
G1 X104.017 Y98.212 E5.47974
G1 X104.301 Y99.086 E5.50527
G1 X104.397 Y100.000 E5.53081
G1 X104.301 Y100.914 E5.55634
G1 X104.017 Y101.788 E5.58187
G1 X103.557 Y102.584 E5.60740
G1 X103.208 Y102.972 E5.62188
G1 X103.645 Y103.465 F7800.000
G1 X103.382 Y103.756 E5.63276 F900.000
G1 X102.527 Y104.378 E5.66212
G1 X101.562 Y104.807 E5.69147
G1 X100.528 Y105.027 E5.72083
G1 X99.472 Y105.027 E5.75018
G1 X98.438 Y104.807 E5.77954
G1 X97.473 Y104.378 E5.80889
G1 X96.618 Y103.756 E5.83824
G1 X95.911 Y102.971 E5.86760
G1 X95.382 Y102.056 E5.89695
G1 X95.056 Y101.051 E5.92631
G1 X94.945 Y100.000 E5.95566
G1 X95.056 Y98.949 E5.98502
G1 X95.382 Y97.944 E6.01437
G1 X95.911 Y97.029 E6.04372
G1 X96.616 Y96.245 E6.07301
G1 X97.502 Y95.609 E6.10332
G1 X98.438 Y95.193 E6.13177
G1 X99.472 Y94.973 E6.16112
G1 X100.528 Y94.973 E6.19047
G1 X101.562 Y95.193 E6.21983
G1 X102.527 Y95.622 E6.24918 F900.000
G1 X103.382 Y96.243 E6.27854
G1 X104.089 Y97.029 E6.30789
G1 X104.618 Y97.944 E6.33725
G1 X104.944 Y98.949 E6.36660
G1 X105.055 Y100.000 E6.39595
G1 X104.944 Y101.051 E6.42531
G1 X104.618 Y102.056 E6.45466
G1 X104.089 Y102.971 E6.48402
G1 X103.695 Y103.409 E6.50040
G1 X104.050 Y103.830 F7800.000
G1 X103.749 Y104.164 E6.51288 F900.000
G1 X102.801 Y104.852 E6.54542
G1 X101.731 Y105.329 E6.57795
G1 X100.586 Y105.572 E6.61049
G1 X99.414 Y105.572 E6.64303
G1 X98.269 Y105.329 E6.67556
G1 X97.199 Y104.852 E6.70810
G1 X96.251 Y104.164 E6.74064
G1 X95.467 Y103.293 E6.77318
G1 X94.881 Y102.279 E6.80571
G1 X94.520 Y101.165 E6.83825
G1 X94.397 Y100.000 E6.87079
G1 X94.520 Y98.835 E6.90332
G1 X94.881 Y97.721 E6.93586
G1 X95.467 Y96.707 E6.96840
G1 X96.250 Y95.837 E7.00091
G1 X97.230 Y95.134 E7.03440
G1 X98.269 Y94.671 E7.06599
G1 X99.414 Y94.428 E7.09852
G1 X100.586 Y94.428 E7.13106
G1 X101.731 Y94.671 E7.16360
G1 X102.801 Y95.148 E7.19614 F900.000
G1 X103.749 Y95.836 E7.22867
G1 X104.533 Y96.707 E7.26121
G1 X105.119 Y97.721 E7.29375
G1 X105.480 Y98.835 E7.32628
G1 X105.603 Y100.000 E7.35882
G1 X105.480 Y101.165 E7.39136
G1 X105.119 Y102.279 E7.42389
G1 X104.533 Y103.293 E7.45643
G1 X104.100 Y103.774 E7.47441
G1 E5.47441 F2400.00000
G92 E0
G1 X102.977 Y97.557 F7800.000
G1 E2.00000 F2400.00000
G1 X102.338 Y96.919 E2.02669 F1200.000
G1 X100.511 Y96.077 F7800.000
G1 X103.929 Y99.495 E2.16960 F1200.000
G1 X103.957 Y100.509 E2.19961
G1 X99.474 Y96.025 E2.38712
G1 X98.660 Y96.197 E2.41171
G1 X103.788 Y101.324 E2.62615
G1 X103.488 Y102.010 E2.64828
G1 X97.978 Y96.500 E2.87871
G1 X97.401 Y96.909 E2.89961
G1 X103.089 Y102.596 E3.13745
G1 X102.600 Y103.093 E3.15806
G1 X96.911 Y97.404 E3.39596
G1 X96.512 Y97.990 E3.41693
G1 X102.022 Y103.500 E3.64736
G1 X101.340 Y103.803 E3.66943
G1 X96.212 Y98.676 E3.88386
G1 X96.043 Y99.491 E3.90849
G1 X100.526 Y103.975 E4.09601
G1 X99.489 Y103.923 E4.12674
G1 X96.071 Y100.505 E4.26965
G1 X97.023 Y102.443 F7800.000
G1 X97.661 Y103.081 E4.29634 F1200.000
M106 S229.5
G1 Z1.250 F7800.000
G1 X103.782 Y103.589 F7800.000
G1 X103.507 Y103.895 E4.30777 F900.000
G1 X102.620 Y104.539 E4.33820
G1 X101.620 Y104.984 E4.36864
G1 X100.548 Y105.212 E4.39907
G1 X99.452 Y105.212 E4.42950
G1 X98.380 Y104.984 E4.45994
G1 X97.380 Y104.539 E4.49038
G1 X96.493 Y103.895 E4.52081
G1 X95.760 Y103.081 E4.55125
G1 X95.212 Y102.132 E4.58168
G1 X94.874 Y101.090 E4.61212
G1 X94.759 Y100.000 E4.64255
G1 X94.874 Y98.910 E4.67298
G1 X95.212 Y97.868 E4.70342
G1 X95.760 Y96.919 E4.73385
G1 X96.493 Y96.105 E4.76429
G1 X97.380 Y95.461 E4.79472
G1 X98.380 Y95.016 E4.82516
G1 X99.452 Y94.788 E4.85559
G1 X100.548 Y94.788 E4.88603
G1 X101.491 Y94.988 E4.91282
G1 X101.620 Y95.016 E4.91646 F900.000
G1 X102.620 Y95.461 E4.94690
G1 X103.507 Y96.105 E4.97733
G1 X104.240 Y96.919 E5.00777
G1 X104.788 Y97.868 E5.03820
G1 X105.126 Y98.910 E5.06864
G1 X105.241 Y100.000 E5.09907
G1 X105.126 Y101.090 E5.12951
G1 X104.788 Y102.132 E5.15994
G1 X104.240 Y103.081 E5.19038
G1 X103.832 Y103.533 E5.20730
G1 X104.269 Y104.027 F7800.000
G1 X103.947 Y104.384 E5.22064 F900.000
G1 X102.950 Y105.109 E5.25490
G1 X101.823 Y105.610 E5.28916
G1 X100.617 Y105.867 E5.32341
G1 X99.383 Y105.867 E5.35767
G1 X98.177 Y105.610 E5.39193
G1 X97.050 Y105.109 E5.42618
G1 X96.053 Y104.384 E5.46044
G1 X95.228 Y103.467 E5.49470
G1 X94.611 Y102.399 E5.52895
G1 X94.230 Y101.226 E5.56321
G1 X94.101 Y100.000 E5.59747
G1 X94.230 Y98.774 E5.63172
G1 X94.611 Y97.601 E5.66598
G1 X95.228 Y96.533 E5.70024
G1 X96.053 Y95.616 E5.73449
G1 X97.050 Y94.891 E5.76875
G1 X98.177 Y94.390 E5.80301
G1 X99.383 Y94.133 E5.83726
G1 X100.617 Y94.133 E5.87152
G1 X101.627 Y94.348 E5.90022
G1 X101.823 Y94.390 E5.90578 F900.000
G1 X102.950 Y94.891 E5.94003
G1 X103.947 Y95.616 E5.97429
G1 X104.772 Y96.533 E6.00855
G1 X105.389 Y97.601 E6.04280
G1 X105.770 Y98.774 E6.07706
G1 X105.899 Y100.000 E6.11132
G1 X105.770 Y101.226 E6.14557
G1 X105.389 Y102.399 E6.17983
G1 X104.772 Y103.467 E6.21409
G1 X104.319 Y103.971 E6.23292
G1 X104.674 Y104.392 F7800.000
M106 S255
G1 X104.314 Y104.791 E6.24785 F900.000
G1 X103.224 Y105.583 E6.28529
G1 X101.992 Y106.132 E6.32273
G1 X100.674 Y106.412 E6.36017
G1 X99.326 Y106.412 E6.39761
G1 X98.008 Y106.132 E6.43505
G1 X96.776 Y105.583 E6.47249
G1 X95.686 Y104.791 E6.50993
G1 X94.784 Y103.790 E6.54737
G1 X94.110 Y102.622 E6.58480
G1 X93.694 Y101.340 E6.62224
G1 X93.553 Y100.000 E6.65968
G1 X93.694 Y98.660 E6.69712
G1 X94.110 Y97.378 E6.73456
G1 X94.784 Y96.210 E6.77200
G1 X95.686 Y95.209 E6.80944
G1 X96.776 Y94.417 E6.84688
G1 X98.008 Y93.868 E6.88432
G1 X99.326 Y93.588 E6.92176
G1 X100.674 Y93.588 E6.95920
G1 X101.741 Y93.815 E6.98949
M106 S229.5
M106 S255
G1 X101.992 Y93.868 E6.99664 F900.000
G1 X103.224 Y94.417 E7.03408
G1 X104.314 Y95.209 E7.07152
G1 X105.216 Y96.210 E7.10896
G1 X105.890 Y97.378 E7.14639
G1 X106.306 Y98.660 E7.18383
G1 X106.447 Y100.000 E7.22127
G1 X106.306 Y101.340 E7.25871
G1 X105.890 Y102.622 E7.29615
G1 X105.216 Y103.790 E7.33359
G1 X104.724 Y104.336 E7.35402
M106 S229.5
G1 X103.542 Y103.070 F7800.000
G1 X102.903 Y103.708 E7.37961 F1200.000
G1 X104.694 Y100.973 F7800.000
G1 X100.987 Y104.680 E7.52820 F1200.000
G1 X99.908 Y104.815 E7.55904
G1 X104.838 Y99.885 E7.75668
G1 X104.753 Y99.025 E7.78115
G1 X99.035 Y104.744 E8.01037
